X:1885
T:Polska efter Karl-Johan Karlsson, Forshyttan
R:Polska
S:Efter Karl-Johan Karlsson
O:Forshyttan, Brattfors, Värmland
B:
Z:ABC-transkribering av Per Saxholm
M:3/4
L:1/8
K:Am
|[DA]2 A^F AB|c2 BA B2|e2 ed Bc|A2 GF E2|D2 FA Bc|A2 A4:|[Ae]2 de ag|e2 dc B2|c2 cd ec|A2 GF E2|D2 FA Bc|A2 AB cd| e2 ed BG| A2 A4:|| 
(:musicend:)
(:music:)
